X:1
T:Hawthorn
M:6/8
L:1/8
Q:3/8=100
K:D
FAd c2A |FAd edB|FAd c2A|fed edB |dBA BAG |
FAd c2A |FAd edB|FAd fgf|edc dcA|FGA BAG|
